X:78
T:Islington Assembly
M:2/4
L:1/8
B:Thompson's Compleat Collection of 200 Favourite Country Dances, vol. 1 (London, 1757)
Z:Transcribed and edited by Fynnian Titford-Mock, 2007
Z:abc's:AK/Fiddler's Companion
K:D
d|Dd "tr"d2|fd "tr"d2|gfed|cBAG|FEDd|cBAf|edcB|A3:|
|:a|Aa "tr"a2|Bg "tr"g2|gfed|cBAG|FAdf|GBeg|fd Ac|d3:|

